X:517
T:Southwest Wind
R:jig
S:Stefan Kayat
H:See also #159, #212, #440
Z:id:hn-jig-517
M:6/8
L:1/8
K:Dmix
EFG ABc | BAG E2D | DGG DEE | DGG GED |
EFG ABc | BAG E2D | EFG AGE |1 EDD D2D :|2 EDD D2e||
|: fed ed^c | ed^c d2e | fed e2d | ^cAG Ade |
fed e2d | =cAB c2d | cAG EAG |1 EDD D2e :|2 EDD D2D ||

